images_sukapura_svg/cmd/sc_choosedesign.svg

<svg viewBox="0 0 16 16" xmlns="http://www.w3.org/2000/svg" xmlns:xlink="http://www.w3.org/1999/xlink"><linearGradient id="a" gradientUnits="userSpaceOnUse" x1="10" x2="11.500001" y1="4" y2="2.499999"><stop offset="0" stop-color="#fff"/><stop offset=".77967989" stop-color="#f1f1f1"/><stop offset="1" stop-color="#d5d5d5"/></linearGradient><radialGradient id="b" cx="10.994179" cy="4.42844" gradientTransform="matrix(1.4 .00000004 -.00000001 1.2 -4.39185 -2.314129)" gradientUnits="userSpaceOnUse" r="5"><stop offset="0" stop-color="#d7d7d7"/><stop offset=".49894297" stop-color="#f7f7f7"/><stop offset="1" stop-color="#fff"/></radialGradient><path d="m3 1v14h10v-11.2949219l-2.695312-2.7050781z" fill="url(#b)"/><path d="m3 0c-.554 0-1 .446-1 1v14c0 .554.446 1 1 1h10c.554 0 1-.446 1-1v-10.5-.8632812l-3.636719-3.6367188h-.863281zm0 1h6v3.5c0 .277.223.5.5.5h3.5v10h-10zm7 0 3 3h-3z" fill="#98989d"/><path d="m10 1 3 3h-3z" fill="url(#a)"/><rect fill="#2a9240" height="5" ry="1" width="4" y="8"/><path d="m7 8c-.554 0-1 .446-1 1v3c0 .554.446 1 1 1h1.5859375l1.4140625-1.414062v-2.585938c0-.554-.446-1-1-1z" fill="#d70015"/><path d="m15.5 5.0000003-9.5000002 10.4999997h9.5000002zm-2 5.4999997v.976392 2.023608h-2-.5z" fill="#fc0" fill-rule="evenodd" stroke="#c89e00"/></svg>

<?xml version="1.0" encoding="UTF-8" standalone="no"?>
<svg
   xmlns:dc="http://purl.org/dc/elements/1.1/"
   xmlns:cc="http://creativecommons.org/ns#"
   xmlns:rdf="http://www.w3.org/1999/02/22-rdf-syntax-ns#"
   xmlns:svg="http://www.w3.org/2000/svg"
   xmlns="http://www.w3.org/2000/svg"
   xmlns:sodipodi="http://sodipodi.sourceforge.net/DTD/sodipodi-0.dtd"
   xmlns:inkscape="http://www.inkscape.org/namespaces/inkscape"
   viewBox="0 0 16 16"
   version="1.1"
   id="svg1154"
   sodipodi:docname="sc_choosedesign.svg"
   inkscape:version="0.92.4 (unknown)">
  <metadata
     id="metadata1160">
    <rdf:RDF>
      <cc:Work
         rdf:about="">
        <dc:format>image/svg+xml</dc:format>
        <dc:type
           rdf:resource="http://purl.org/dc/dcmitype/StillImage" />
        <dc:title></dc:title>
      </cc:Work>
    </rdf:RDF>
  </metadata>
  <defs
     id="defs1158" />
  <sodipodi:namedview
     pagecolor="#ffffff"
     bordercolor="#666666"
     borderopacity="1"
     objecttolerance="10"
     gridtolerance="10"
     guidetolerance="10"
     inkscape:pageopacity="0"
     inkscape:pageshadow="2"
     inkscape:window-width="1360"
     inkscape:window-height="714"
     id="namedview1156"
     showgrid="false"
     inkscape:zoom="14.75"
     inkscape:cx="-3.6271186"
     inkscape:cy="8"
     inkscape:window-x="0"
     inkscape:window-y="28"
     inkscape:window-maximized="1"
     inkscape:current-layer="svg1154" />
  <linearGradient
     id="a"
     gradientUnits="userSpaceOnUse"
     x1="10"
     x2="11.500001"
     y1="4"
     y2="2.499999">
    <stop
       offset="0"
       stop-color="#fff"
       id="stop1134" />
    <stop
       offset=".77967989"
       stop-color="#f1f1f1"
       id="stop1136" />
    <stop
       offset="1"
       stop-color="#d5d5d5"
       id="stop1138" />
  </linearGradient>
  <radialGradient
     id="b"
     cx="10.994179"
     cy="4.42844"
     gradientTransform="matrix(1.4 .00000004 -.00000001 1.2 -4.39185 -2.314129)"
     gradientUnits="userSpaceOnUse"
     r="5">
    <stop
       offset="0"
       stop-color="#d7d7d7"
       id="stop1141" />
    <stop
       offset=".49894297"
       stop-color="#f7f7f7"
       id="stop1143" />
    <stop
       offset="1"
       stop-color="#fff"
       id="stop1145" />
  </radialGradient>
  <path
     d="m3 1v14h10v-11.2949219l-2.695312-2.7050781z"
     fill="url(#b)"
     id="path1148" />
  <path
     d="m3 0c-.554 0-1 .446-1 1v14c0 .554.446 1 1 1h10c.554 0 1-.446 1-1v-10.5-.8632812l-3.636719-3.6367188h-.863281zm0 1h6v3.5c0 .277.223.5.5.5h3.5v10h-10zm7 0 3 3h-3z"
     fill="#98989d"
     id="path1150" />
  <path
     d="m10 1 3 3h-3z"
     fill="url(#a)"
     id="path1152" />
  <rect
     x="0"
     style="fill:#2a9240"
     height="5"
     ry="1"
     width="4"
     y="8"
     id="rect8" />
  <path
     inkscape:connector-curvature="0"
     style="fill:#d70015"
     d="M 7,8 C 6.446,8 6,8.446 6,9 v 3 c 0,0.554 0.446,1 1,1 H 8.5859375 L 10,11.585938 V 9 C 10,8.446 9.554,8 9,8 Z"
     id="path10" />
  <path
     inkscape:connector-curvature="0"
     style="fill:#ffcc00;fill-rule:evenodd;stroke:#c89e00"
     d="M 15.5,5.0000003 5.9999998,15.5 H 15.5 Z M 13.5,10.5 V 11.476392 13.5 h -2 -0.5 z"
     id="path20" />
</svg>
